X:1
T:Christe der du bist Tag und Licht
T:Michael Praetorius
T:Christe, der du bist Tag und Licht
T:Nr. 100 aus Musae Sioniae VI
T:CPDL - Creative Commons Attribution Non Commercial 3.0
C:Michael Praetorius
Z:CPDL - Creative Commons Attribution Non Commercial 3.0
%%score [ 1 2 3 4 ]
L:1/8
M:2/2
K:C
V:1 treble nm="Sopran"
V:2 treble nm="Alt"
V:3 treble-8 nm="Tenor"
V:4 bass nm="B"
V:1
 A4 A4 c4 | A4 G4 A4 | B2 c4 B2 | A4 z2 c2 | c2 c2 c2 G2 | AB c2 B2 A2 | B4 z2 B2 | d2 d2 d2 B2 | %8
w: Chri- ste, _|der _ du|bist Tag und|Licht, vor|dir ist, Herr, ver-|bor- * * * gen|nichts; du|vä- ter- li- chen|
 A3 B c2 B2 | A4 z2 B2- | B2 c4 A4 G2 | A4 B4 | cB A4 ^G2 | A16 |] %14
w: Lich- * * tes|Glanz, lehr|_ uns den _|Weg der|Wahr- * * heit|ganz.|
V:2
 E4 F4 E4 | C2 D2 E6 ^F2 | G2 G4 G2 | ^F4 z2 E2 | A2 G2 A2 E2- | E2 G4 E2 | G4 z2 G2 | %7
w: Chri- ste, _|der _ _ du|bist Tag und|Licht, vor|dir ist, Herr, ver-|* bor- gen|nichts; du|
 ^F2 G2 F2 GF | E2 A4 ^G2 | A4 z2 D2 | G6 FE D2 E2 | E2 ^F2 G3 F | E2 ^F2 E3 E | E16 |] %14
w: vä- ter- li- chen _|_ Lich- tes|Glanz, lehr|uns- * * * den|Weg der Wahr- *|* * * heit|ganz.|
V:3
 c4 d4 G4 | A4 B4 c4 | d2 e4 d2 | d4 z2 c2 | e2 e2 c3 c- | cd e2 d2 c2 | e4 z2 B2 | B2 B2 A2 e2 | %8
w: Chri- ste, _|der _ du|bist Tag und|Licht, vor|dir ist, Herr, ver-|* * * bor- gen|nichts; du|vä- ter- li- chen|
 c3 d e2 e2 | c4 z2 Bc | d2 e3 dcB A2 B2 | c2 d4 G2- | G2 d2 c2 B2 | ^c16 |] %14
w: Lich- * * tes|Glanz, lehr _|_ uns _ _ _ _ _|_ den Weg|* der Wahr- heit|ganz.|
V:4
 A,4 D,4 C,4 | F,4 E,4 A,4 | G,2 C,4 G,2 | D,4 z2 A,2 | A,2 C2 F,2 C2 | A,2 E,2 G,2 A,2 | %6
w: Chri- ste, _|der _ du|bist Tag und|Licht, vor|dir ist, Herr, ver-|bor- * * gen|
 E,4 z2 E,2 | B,,2 G,,2 D,2 E,2 | A,4 E,4 | A,4 z2 G,2- | G,2 C,4 F,4 E,2 | A,2 D,2 G,^F,E,D, | %12
w: nichts; du|vä- ter- li- chen|Lich- tes|Glanz, lehr|_ uns den _|Weg der Wahr _ _ _|
 C,2 D,2 E,2 E,2 | A,,16 |] %14
w: _ _ _ heit|ganz.|

